symbols/web/sports_golf/materialsymbolsoutlined/sports_golf_wght700grad200_40px.svg

<svg xmlns="http://www.w3.org/2000/svg" height="40" width="40"><path d="M20 26.917q-5.375 0-9.146-3.771Q7.083 19.375 7.083 14q0-5.333 3.771-9.104Q14.625 1.125 20 1.125q5.375 0 9.167 3.771Q32.958 8.667 32.958 14q0 5.375-3.791 9.146-3.792 3.771-9.167 3.771Zm0-4.417q3.583 0 6.042-2.458Q28.5 17.583 28.5 14q0-3.583-2.458-6Q23.583 5.583 20 5.583q-3.583 0-6.042 2.438Q11.5 10.458 11.5 14q0 3.583 2.458 6.042Q16.417 22.5 20 22.5Zm-3.417-8.417q.584 0 .979-.416.396-.417.396-.959 0-.583-.416-1-.417-.416-.959-.416-.625 0-1.021.416-.395.417-.395.959 0 .583.395 1 .396.416 1.021.416Zm6.875 0q.584 0 .98-.416.395-.417.395-.959 0-.583-.416-1-.417-.416-.959-.416-.583 0-1 .416-.416.417-.416.959 0 .583.416 1 .417.416 1 .416ZM20 10.5q.583 0 1-.417.417-.416.417-1 0-.583-.417-.979t-1-.396q-.625 0-1 .396t-.375.938q0 .625.375 1.041.375.417 1 .417Zm-2.208 28.375v-3.042q0-1.125-.709-1.854-.708-.729-1.875-.729h-3.625v-4.417H28.5v4.417h-3.708q-1.125 0-1.854.729-.73.729-.73 1.854v3.042ZM20 14Z"/></svg>

<svg xmlns="http://www.w3.org/2000/svg" height="40" width="40"><path d="M20 26.917Q14.625 26.917 10.854 23.146Q7.083 19.375 7.083 14Q7.083 8.667 10.854 4.896Q14.625 1.125 20 1.125Q25.375 1.125 29.167 4.896Q32.958 8.667 32.958 14Q32.958 19.375 29.167 23.146Q25.375 26.917 20 26.917ZM20 22.5Q23.583 22.5 26.042 20.042Q28.5 17.583 28.5 14Q28.5 10.417 26.042 8Q23.583 5.583 20 5.583Q16.417 5.583 13.958 8.021Q11.5 10.458 11.5 14Q11.5 17.583 13.958 20.042Q16.417 22.5 20 22.5ZM16.583 14.083Q17.167 14.083 17.562 13.667Q17.958 13.25 17.958 12.708Q17.958 12.125 17.542 11.708Q17.125 11.292 16.583 11.292Q15.958 11.292 15.562 11.708Q15.167 12.125 15.167 12.667Q15.167 13.25 15.562 13.667Q15.958 14.083 16.583 14.083ZM23.458 14.083Q24.042 14.083 24.438 13.667Q24.833 13.25 24.833 12.708Q24.833 12.125 24.417 11.708Q24 11.292 23.458 11.292Q22.875 11.292 22.458 11.708Q22.042 12.125 22.042 12.667Q22.042 13.25 22.458 13.667Q22.875 14.083 23.458 14.083ZM20 10.5Q20.583 10.5 21 10.083Q21.417 9.667 21.417 9.083Q21.417 8.5 21 8.104Q20.583 7.708 20 7.708Q19.375 7.708 19 8.104Q18.625 8.5 18.625 9.042Q18.625 9.667 19 10.083Q19.375 10.5 20 10.5ZM17.792 38.875V35.833Q17.792 34.708 17.083 33.979Q16.375 33.25 15.208 33.25H11.583V28.833H28.5V33.25H24.792Q23.667 33.25 22.938 33.979Q22.208 34.708 22.208 35.833V38.875ZM20 14Q20 14 20 14Q20 14 20 14Q20 14 20 14Q20 14 20 14Q20 14 20 14Q20 14 20 14Q20 14 20 14Q20 14 20 14Z"/></svg>
